src/assets/img/svgs/colour-rail-no-nr.svg

<?xml version="1.0" encoding="UTF-8"?>
<svg width="256px" height="256px" viewBox="0 0 256 256" version="1.1" xmlns="http://www.w3.org/2000/svg" xmlns:xlink="http://www.w3.org/1999/xlink">
    <!-- Generator: Sketch 58 (84663) - https://sketch.com -->
    <title>Icon / Modes / Colour / Railway / NO NR</title>
    <desc>Created with Sketch.</desc>
    <g id="Icon-/-Modes-/-Colour-/-Railway-/-NO-NR" stroke="none" stroke-width="1" fill="none" fill-rule="evenodd">
        <rect id="Rectangle" fill="#FFFFFF" x="37" y="24" width="175" height="211"></rect>
        <path d="M229.944558,8.52651283e-14 C244.018605,8.52651283e-14 255.529674,11.5110698 255.529674,25.5851163 L255.529674,25.5851163 L255.529674,230.269023 C255.529674,244.340093 244.018605,255.85414 229.944558,255.85414 L229.944558,255.85414 L25.5315349,255.85414 C11.4604651,255.85414 -0.0565581395,244.340093 -0.0565581395,230.269023 L-0.0565581395,230.269023 L-0.047627907,25.5910698 C-0.047627907,11.5170233 11.4693953,0.00297674419 25.5464186,0.00297674419 L25.5464186,0.00297674419 Z M163.072,191.657674 L158.303256,191.657674 C157.100651,191.657674 156.356465,192.970419 156.978605,194.000372 L156.978605,194.000372 L168.992744,214.010047 C170.013767,215.709767 171.853395,216.748651 173.835907,216.748651 L173.835907,216.748651 L187.451535,216.748651 C188.770233,216.748651 189.469767,215.17693 188.579721,214.194605 L188.579721,214.194605 L168.233674,193.812837 C166.867349,192.431628 165.006884,191.657674 163.072,191.657674 L163.072,191.657674 Z M96.3333953,191.657674 L91.5646512,191.657674 C89.6267907,191.657674 87.7693023,192.431628 86.4029767,193.812837 L86.4029767,193.812837 L66.0539535,214.194605 C65.1668837,215.17693 65.8664186,216.748651 67.188093,216.748651 L67.188093,216.748651 L80.8007442,216.748651 C82.7832558,216.748651 84.619907,215.709767 85.6379535,214.010047 L85.6379535,214.010047 L97.6610233,194.000372 C98.2772093,192.970419 97.536,191.657674 96.3333953,191.657674 L96.3333953,191.657674 Z M127.339401,45.0918403 L127.303144,45.0918403 C127.113147,45.0930909 125.491655,45.103803 125.270326,45.1066047 C110.07107,45.3715349 97.3544186,47.1307907 87.9508837,50.1730233 C87.9300465,50.1819535 87.9092093,50.187907 87.8853953,50.1938605 C87.8645581,50.199814 87.8526512,50.2057674 87.831814,50.2146977 C78.7110698,53.0455814 74.4394419,55.9985116 72.4033488,60.6690233 C71.7186977,62.2139535 71.2811163,63.9613023 71.0013023,65.9735814 C71.0013023,65.9735814 60.3237209,113.503256 60.317669,134.572651 C60.3147907,135.203721 60.3802791,138.704372 60.3802791,138.707349 C61.0917209,160.312558 71.7216744,182.599442 89.2219535,182.599442 L89.2219535,182.599442 L165.414698,182.599442 C182.914977,182.599442 193.541953,160.312558 194.256372,138.707349 C194.256372,138.704372 194.32186,135.203721 194.32186,134.572651 C194.31293,113.503256 183.632372,65.9735814 183.632372,65.9735814 C183.358512,63.9613023 182.917953,62.2139535 182.233302,60.6690233 C180.197209,55.9985116 175.919628,53.0455814 166.804837,50.2146977 C166.786977,50.2057674 166.769116,50.199814 166.754233,50.1938605 C166.733395,50.187907 166.706605,50.1819535 166.685767,50.1730233 C157.282233,47.1307907 144.562605,45.3715349 129.366326,45.1066047 C129.131163,45.1036279 127.321302,45.0917209 127.321302,45.0917209 Z M168.004465,131.72093 C172.755349,131.750698 176.601302,135.593674 176.601302,140.368372 C176.601302,145.128186 172.755349,149.00093 168.004465,149.030698 C163.256558,149.00093 159.392744,145.128186 159.392744,140.368372 C159.392744,135.593674 163.256558,131.750698 168.004465,131.72093 Z M86.6292093,131.72093 C91.380093,131.750698 95.2409302,135.593674 95.2409302,140.368372 C95.2409302,145.128186 91.380093,149.00093 86.6292093,149.030698 C81.8842791,149.00093 78.0353488,145.128186 78.0353488,140.368372 C78.0353488,135.593674 81.8842791,131.750698 86.6292093,131.72093 Z M112.803721,68.5127442 C114.113709,68.5127442 115.418176,69.1448593 115.513006,70.8078035 L115.518512,71.0042791 L115.518512,112.372093 C115.518512,114.569488 114.88157,115.696933 112.581997,115.765253 L112.354233,115.768558 L82.3307907,115.768558 C80.5209302,115.768558 79.6130233,114.863628 79.8392558,113.277023 C80.7382326,100.813395 83.4292093,83.1255814 86.2928372,71.2305116 C86.8209967,69.0604651 88.2376573,68.5484006 89.3470793,68.5145924 L89.4690233,68.5127442 L112.803721,68.5127442 Z M141.83293,68.5127442 L165.164651,68.5127442 C166.295814,68.5127442 167.79907,68.980093 168.340837,71.2305116 C171.207442,83.1255814 173.898419,100.813395 174.797395,113.277023 C175.015548,114.806963 174.179125,115.703051 172.498981,115.765106 L172.308837,115.768558 L142.285395,115.768558 C139.874605,115.768558 139.159532,114.709782 139.117194,112.581404 L139.115163,112.372093 L139.115163,71.0042791 C139.115163,69.2614505 140.371112,68.5647862 141.681552,68.5155721 L141.83293,68.5127442 L165.164651,68.5127442 Z" id="Railway" fill="#FF8300"></path>
    </g>
</svg>

<svg width="256" height="256" xmlns="http://www.w3.org/2000/svg"><g fill="none" fill-rule="evenodd"><path fill="#FFF" d="M37 24h175v211H37z"/><path d="M229.945 0c14.074 0 25.585 11.511 25.585 25.585V230.27c0 14.071-11.511 25.585-25.585 25.585H25.532c-14.072 0-25.589-11.514-25.589-25.585l.01-204.678C-.048 11.517 11.468.003 25.545.003zm-66.873 191.658h-4.769c-1.202 0-1.947 1.312-1.324 2.342l12.014 20.01a5.65 5.65 0 004.843 2.739h13.616c1.318 0 2.018-1.572 1.128-2.554l-20.346-20.382a7.262 7.262 0 00-5.162-2.155zm-66.739 0h-4.768a7.257 7.257 0 00-5.162 2.155l-20.349 20.382c-.887.982-.188 2.554 1.134 2.554h13.613a5.637 5.637 0 004.837-2.739L97.661 194c.616-1.03-.125-2.342-1.328-2.342zM127.34 45.092h-.036c-.19.001-1.811.012-2.033.015-15.199.265-27.916 2.024-37.32 5.066a.422.422 0 01-.065.02c-.02.007-.032.013-.053.022-9.12 2.83-13.393 5.784-15.429 10.454-.684 1.545-1.122 3.292-1.402 5.305 0 0-10.677 47.53-10.683 68.599-.003.63.062 4.131.062 4.134.712 21.606 11.342 43.892 28.842 43.892h76.193c17.5 0 28.127-22.286 28.841-43.892 0-.003.066-3.503.066-4.134-.01-21.07-10.69-68.6-10.69-68.6-.273-2.012-.714-3.759-1.399-5.304-2.036-4.67-6.313-7.623-15.428-10.454-.018-.01-.036-.015-.05-.021-.022-.006-.048-.012-.07-.021-9.403-3.042-22.122-4.801-37.319-5.066-.235-.003-2.045-.015-2.045-.015zm40.665 86.629a8.64 8.64 0 018.597 8.647c0 4.76-3.846 8.633-8.597 8.663-4.747-.03-8.611-3.903-8.611-8.663 0-4.774 3.864-8.617 8.611-8.647zm-81.375 0c4.751.03 8.612 3.873 8.612 8.647 0 4.76-3.86 8.633-8.612 8.663-4.745-.03-8.594-3.903-8.594-8.663a8.641 8.641 0 018.594-8.647zm26.175-63.208c1.31 0 2.614.632 2.709 2.295l.006.196v41.368c0 2.197-.637 3.325-2.937 3.393l-.228.004H82.331c-1.81 0-2.718-.905-2.492-2.492.9-12.464 3.59-30.151 6.454-42.046.528-2.17 1.945-2.683 3.054-2.716l.122-.002h23.335zm29.029 0h23.332c1.13 0 2.634.467 3.176 2.718 2.866 11.895 5.557 29.582 6.456 42.046.219 1.53-.618 2.426-2.298 2.488l-.19.004h-30.024c-2.41 0-3.125-1.06-3.168-3.188l-.002-.209V71.004c0-1.743 1.256-2.44 2.567-2.488l.15-.003h23.333z" fill="#FF8300"/></g></svg>
